X:1
T:Title
%%score { ( 1 3 ) | 2 }
L:1/8
M:4/4
K:Bb
V:1 treble nm="Grand Piano"
V:3 treble 
V:2 bass 
V:1
 z4 z2[Q:1/4=96] [B,D]>[CE] | [DF]2 [Fd]>[Fd] [Fd]2 [Ec]>[DB] | c E2 D C2 C>D | E2 c>B A2 G>F | %4
 [DF]6 [B,D]>[CE] | [DF]2 [Fd]>[Fd] [Fd]2 [Ec]>[DB] | c E2 D C2 C>D | E2 c>B A2 F>c | %8
[M:3/4] [DB]6 |[M:1/4] [DB]>[FA] |[M:4/4] [EG] [GB]2 [Gc] [GB]2 [FA]>[EG] | [DF]6 z2 | %12
 d d2 B [=Ed] [Ec]2 [EB] | c6 z2 | [EG] [GB]2 [Gc] [GB]2 [FA]>[EG] | [DF]6 z2 | %16
 [Fd][Ff] z [Ge] [Fd][Fd] z [Ec] |[M:3/4] [DB]6 |] %18
V:2
 z4 z2 [B,,F,]>[B,,F,] | [B,,B,]2 [B,,B,]>[B,,B,] [B,,B,]2 [B,,B,]>[B,,B,] | %2
 [F,A,E] [F,A,C]2 [F,B,] [F,A,]2 [F,A,]>[F,B,] | [F,A,C]2 [F,A,E]>[F,CE] [F,CE]2 [F,B,E]>[F,A,E] | %4
 [B,,B,]6 [B,,F,]>[B,,F,] | [B,,B,]2 [B,,B,]>[B,,B,] [B,,B,]2 [B,,B,]>[B,,B,] | %6
 [F,A,E] [F,A,C]2 [F,B,] [F,A,]2 [F,A,]>[F,B,] | [F,A,C]2 [F,A,E]>[F,CE] [F,CE]2 [F,A,E]>[F,A,E] | %8
[M:3/4] [B,,B,]6 |[M:1/4] [B,,B,]>[D,B,] |[M:4/4] [E,B,] [E,E]2 [E,E] [E,E]2 [E,B,]>[E,B,] | %11
 [B,,B,]2 B,,>B,, B,,2 [B,,B,]>[B,,B,] | [B,F] [B,F]2[K:bass] [G,B,D] [C,B,] [C,G,]2 [C,G,] | %13
 [F,A,F]2 [G,B,]2 [F,A,]2 [B,,B,]>[D,B,] | [E,B,] [E,E]2 [E,E] [E,E]2 [E,B,]>[E,B,] | %15
 [B,,B,]2 B,,>B,, B,,2 D,>[D,B,] | [F,B,] [D,B,]2 [E,B,] [F,B,] [F,A,]2 [F,A,] |[M:3/4] [B,,B,]6 |] %18
V:3
 x8 | x8 | x8 | x8 | x8 | x8 | x8 | x8 |[M:3/4] x6 |[M:1/4] x2 |[M:4/4] x8 | %11
 z2 B,>B, B,2 [DB]>[Ec] | x8 | z2 =E2 _E2 [DB]>[FA] | x8 | z2 B,>B, B,2 [B,FB]>[Gc] | x8 | %17
[M:3/4] x6 |] %18

